src/svgs/tex.svg

<?xml version="1.0" encoding="UTF-8" standalone="no"?>
<svg
   viewBox="0 0 32 32"
   version="1.1"
   id="svg839"
   xmlns="http://www.w3.org/2000/svg"
   xmlns:svg="http://www.w3.org/2000/svg">
  <defs
     id="defs843" />
  <path
     id="path833"
     d="M 18.599609 9.5996094 L 18.599609 11 L 19.099609 11 C 19.699609 11 19.700781 10.999219 19.800781 11.199219 L 21.900391 14.300781 L 20.099609 17 L 19.800781 17.300781 C 19.600781 17.500781 19.3 17.599609 19 17.599609 L 18.5 17.599609 L 18.5 18.800781 L 21.699219 18.800781 L 21.699219 17.599609 L 21.199219 17.599609 L 22.699219 15.400391 L 24.199219 17.599609 L 23.900391 17.599609 L 23.900391 18.699219 L 27.5 18.699219 L 27.5 17.5 L 27 17.5 C 26.4 17.5 26.400781 17.500781 26.300781 17.300781 L 23.900391 13.800781 L 25.5 11.5 C 25.7 11.3 25.899609 10.900391 26.599609 10.900391 L 27.099609 10.900391 L 27.099609 9.5996094 L 24 9.5996094 L 24 10.800781 L 24.5 10.800781 L 24.400391 10.900391 L 23.199219 12.599609 L 21.900391 11 L 22.199219 11 L 22.199219 9.5996094 L 18.599609 9.5996094 z M 4.8007812 9.6992188 L 4.5 13.300781 L 5.6992188 13.300781 L 5.6992188 12.800781 C 5.8992188 11.100781 6 11 7.5 11 L 7.9003906 11 L 7.9003906 17.5 L 6.5 17.5 L 6.5 18.800781 L 10.900391 18.800781 L 10.900391 17.5 L 9.5996094 17.5 L 9.5996094 11 L 10 11 C 11.2 11 11.399609 11.1 11.599609 12 L 12.800781 12 L 12.599609 9.6992188 L 4.8007812 9.6992188 z M 11.300781 13.199219 L 11.300781 14.5 L 12.300781 14.5 L 12.300781 20.900391 L 11.300781 20.900391 L 11.300781 22.199219 L 18.400391 22.199219 L 18.800781 19.599609 L 17.5 19.599609 C 17.5 20.699609 17.100781 21.099609 15.800781 21.099609 L 14.099609 21.099609 L 14.099609 18.300781 L 14.699219 18.300781 C 15.399219 18.300781 15.400391 18.299219 15.400391 19.199219 L 15.400391 19.699219 L 16.599609 19.699219 L 16.599609 15.599609 L 15.400391 15.599609 L 15.400391 16.099609 C 15.400391 16.999609 15.399219 17 14.699219 17 L 14.099609 17 L 14.099609 14.599609 L 15.699219 14.599609 C 17.199219 14.599609 17.300391 15.000391 17.400391 16.400391 L 18.599609 16.400391 L 18.300781 13.199219 L 11.300781 13.199219 z " />
</svg>

<svg xmlns="http://www.w3.org/2000/svg" viewBox="0 0 32 32"><path d="M8.7 18.8H6.5 11 8.7zm15.5-1.3l-1.4-2.2-1.5 2.2.4.1v1.1h2.2v-1.2z" fill="none"/><path d="M7.9 17.5H6.5v1.3h4.4v-1.3H9.6V11h.4c1.2 0 1.4.1 1.6 1h1.2l-.2-2.3H4.8l-.3 3.6h1.2v-.5c.2-1.7.3-1.8 1.8-1.8h.4v6.5z"/><path d="M15.8 21.1h-1.7v-2.8h.6c.7 0 .7 0 .7.9v.5h1.2v-4.1h-1.2v.5c0 .9 0 .9-.7.9h-.6v-2.4h1.6c1.5 0 1.6.4 1.7 1.8h1.2l-.3-3.2h-7v1.3h1v6.4h-1v1.3h7.1l.4-2.6h-1.3c0 1.1-.4 1.5-1.7 1.5z"/><path d="M21.7 17.6h-.5l1.5-2.2 1.5 2.2h-.3v1.1h3.6v-1.2H27c-.6 0-.6 0-.7-.2l-2.4-3.5 1.6-2.3c.2-.2.4-.6 1.1-.6h.5V9.6H24v1.2h.5l-.1.1-1.2 1.7-1.3-1.6h.3V9.6h-3.6V11h.5c.6 0 .6 0 .7.2l2.1 3.1-1.8 2.7-.3.3c-.2.2-.5.3-.8.3h-.5v1.2h3.2v-1.2z"/></svg>
